src/lib/packages/icons/src/assets/line/arrow-forward.svg

<svg width="24" height="24" viewBox="0 0 24 24" fill="none" xmlns="http://www.w3.org/2000/svg">
<path d="M21.6919 9.28713C21.6539 9.37913 21.599 9.46203 21.53 9.53103L18.53 12.531C18.384 12.677 18.192 12.751 18 12.751C17.808 12.751 17.616 12.678 17.47 12.531C17.177 12.238 17.177 11.763 17.47 11.47L19.1899 9.75002H7.5C5.433 9.75002 3.75 11.432 3.75 13.5C3.75 15.568 5.433 17.25 7.5 17.25H18C18.414 17.25 18.75 17.586 18.75 18C18.75 18.414 18.414 18.75 18 18.75H7.5C4.605 18.75 2.25 16.395 2.25 13.5C2.25 10.605 4.605 8.25002 7.5 8.25002H19.189L17.469 6.53005C17.176 6.23705 17.176 5.76202 17.469 5.46902C17.762 5.17602 18.237 5.17602 18.53 5.46902L21.53 8.46902C21.599 8.53802 21.6539 8.62091 21.6919 8.71291C21.7679 8.89691 21.7679 9.10313 21.6919 9.28713Z" fill="currentColor"/>
</svg>

<svg xmlns="http://www.w3.org/2000/svg" width="24" height="24" fill="none"><path fill="currentColor" d="M21.692 9.287a.748.748 0 0 1-.162.244l-3 3a.748.748 0 0 1-1.06 0 .75.75 0 0 1 0-1.061l1.72-1.72H7.5a3.755 3.755 0 0 0-3.75 3.75 3.755 3.755 0 0 0 3.75 3.75H18a.75.75 0 0 1 0 1.5H7.5a5.256 5.256 0 0 1-5.25-5.25A5.256 5.256 0 0 1 7.5 8.25h11.689l-1.72-1.72a.75.75 0 0 1 1.061-1.06l3 3a.748.748 0 0 1 .162.818Z"/></svg>
